X: 1
T: Deep Roots, The
M: 4/4
L: 1/8
R: reel
K: Amix
|:cBcd e2dc|B2 G2 f2ed|ceef e2dc|Bdde d3B|
cBcd e2dc|d2 f2 a2 ^g2|e2ef ^gfed|1efd2 e2ed:|2efd2 e2ef||
|:gfed =cdeg|f2 e2 d2 AB|=c2cd cBAG|Add^c d2ef|
[1ge=ce agfe|Adde f3a|gefd e=cAc|de=c2 d2ef:|
[2ge=ce afdf|b3a ^g2ef|gegb afdf|e2ed e4||
